X: 2680
T: Banks Of Allan, The
R: jig
M: 6/8
K: Dmajor
|:cdc cBA|cee e2a|faa eaa|faa eaa|
cdc cBA|cee e2a|faf ecA|cBB B3:|
|:cdc cBA|cee e3|cdc cBA|dff f2e|
cde Bcd|Acc cBA|faf ecA|cBB B3:|

